img/comment-outlined.svg

<svg fill="none" height="24" viewBox="0 0 24 24" width="24" xmlns="http://www.w3.org/2000/svg" xmlns:xlink="http://www.w3.org/1999/xlink"><mask id="a" fill="#fff"><path d="m22.4986 11.4895c.0013 1.359-.3601 2.6953-1.0492 3.8797-.9052 1.4881-2.2033 2.7167-3.7613 3.56-1.5581.8432-3.32 1.2706-5.1051 1.2385-1.5289.0058-3.04107-.3076-4.4332-.9188l-6.6498 1.9386 2.2166-5.8183c-.68911-1.1844-1.0505-2.5207-1.04925-3.8797.04154-1.66714.58152-3.28695 1.55467-4.6637.97315-1.37676 2.33783-2.45155 3.92913-3.09448 1.39214-.61115 2.90435-.92454 4.43325-.91874h.5836c2.3206.01763 4.5535.85934 6.2741 2.36503 1.7206 1.5057 2.8089 3.57036 3.0579 5.80129z" fill="#fff"/></mask><path d="m22.4986 11.4895c.0013 1.359-.3601 2.6953-1.0492 3.8797-.9052 1.4881-2.2033 2.7167-3.7613 3.56-1.5581.8432-3.32 1.2706-5.1051 1.2385-1.5289.0058-3.04107-.3076-4.4332-.9188l-6.6498 1.9386 2.2166-5.8183c-.68911-1.1844-1.0505-2.5207-1.04925-3.8797.04154-1.66714.58152-3.28695 1.55467-4.6637.97315-1.37676 2.33783-2.45155 3.92913-3.09448 1.39214-.61115 2.90435-.92454 4.43325-.91874h.5836c2.3206.01763 4.5535.85934 6.2741 2.36503 1.7206 1.5057 2.8089 3.57036 3.0579 5.80129z" mask="url(#a)" stroke="#1c8aa9" stroke-linecap="round" stroke-linejoin="round" stroke-width="3.6"/></svg>

<svg width="24" height="24" viewBox="0 0 24 24" fill="none" xmlns="http://www.w3.org/2000/svg">
<mask id="path-1-inside-1_10187_34825" fill="white">
<path d="M22.4986 11.4895C22.4999 12.8485 22.1385 14.1848 21.4494 15.3692C20.5442 16.8573 19.2461 18.0859 17.6881 18.9292C16.13 19.7724 14.3681 20.1998 12.583 20.1677C11.0541 20.1735 9.54193 19.8601 8.1498 19.2489L1.5 21.1875L3.7166 15.3692C3.02749 14.1848 2.6661 12.8485 2.66735 11.4895C2.70889 9.82236 3.24887 8.20255 4.22202 6.8258C5.19517 5.44904 6.55985 4.37425 8.15115 3.73132C9.54329 3.12017 11.0555 2.80678 12.5844 2.81258H13.168C15.4886 2.83021 17.7215 3.67192 19.4421 5.17761C21.1627 6.68331 22.251 8.74797 22.5 10.9789L22.4986 11.4895Z"/>
</mask>
<path d="M22.4986 11.4895C22.4999 12.8485 22.1385 14.1848 21.4494 15.3692C20.5442 16.8573 19.2461 18.0859 17.6881 18.9292C16.13 19.7724 14.3681 20.1998 12.583 20.1677C11.0541 20.1735 9.54193 19.8601 8.1498 19.2489L1.5 21.1875L3.7166 15.3692C3.02749 14.1848 2.6661 12.8485 2.66735 11.4895C2.70889 9.82236 3.24887 8.20255 4.22202 6.8258C5.19517 5.44904 6.55985 4.37425 8.15115 3.73132C9.54329 3.12017 11.0555 2.80678 12.5844 2.81258H13.168C15.4886 2.83021 17.7215 3.67192 19.4421 5.17761C21.1627 6.68331 22.251 8.74797 22.5 10.9789L22.4986 11.4895Z" stroke="#1C8AA9" stroke-width="3.6" stroke-linecap="round" stroke-linejoin="round" mask="url(#path-1-inside-1_10187_34825)"/>
</svg>
